svgs/fennec.svg

<svg width="24" height="24" viewBox="0 0 24 24" fill="none" xmlns="http://www.w3.org/2000/svg">
<path d="M22 4.06592V14.3462L16.3564 10.7298L21.148 3C21.6161 3.11281 22 3.52084 22 4.06592Z" fill="#FFF1C0"/>
<path d="M3.11418 3.4229C2.53454 3.42247 2 3.87838 2 4.52V14.3462L7.64363 10.7298L3.11418 3.4229Z" fill="#FFF1C0"/>
<path fill-rule="evenodd" clip-rule="evenodd" d="M2.39326 15.4007L11.4206 20.8393C11.7763 21.0536 12.2237 21.0536 12.5794 20.8393L21.6068 15.4007L12 9.24467L2.39326 15.4007ZM9.77778 15.7115C9.77778 16.3164 9.28032 16.8069 8.66667 16.8069C8.05302 16.8069 7.55556 16.3164 7.55556 15.7115C7.55556 15.1065 8.05302 14.6161 8.66667 14.6161C9.28032 14.6161 9.77778 15.1065 9.77778 15.7115ZM16.4444 15.7115C16.4444 16.3164 15.947 16.8069 15.3333 16.8069C14.7197 16.8069 14.2222 16.3164 14.2222 15.7115C14.2222 15.1065 14.7197 14.6161 15.3333 14.6161C15.947 14.6161 16.4444 15.1065 16.4444 15.7115ZM13.1111 19.5453C13.1111 20.1503 12.6137 20.6407 12 20.6407C11.3864 20.6407 10.8889 20.1503 10.8889 19.5453C10.8889 18.9403 11.3864 18.4499 12 18.4499C12.6137 18.4499 13.1111 18.9403 13.1111 19.5453Z" fill="#FFF1C0"/>
<path d="M19.3909 3.73394L12.5033 8.2607L15.4245 10.1326L19.3909 3.73394Z" fill="#FFF1C0"/>
<path d="M5.00969 4.38009L11.4746 8.27493L8.57559 10.1326L5.00969 4.38009Z" fill="#FFF1C0"/>
</svg>

<svg xmlns="http://www.w3.org/2000/svg" viewBox="0 0 24 24"><path d="M19.39 3.734 12.504 8.26l2.922 1.872 3.966-6.4zM5.01 4.38l6.465 3.895-2.9 1.858zM2.393 15.4l9.028 5.44c.355.214.803.214 1.158 0l9.028-5.44L12 9.246zm7.385.311c0 .605-.498 1.096-1.111 1.096-.614 0-1.111-.49-1.111-1.095s.497-1.096 1.11-1.096c.614 0 1.112.49 1.112 1.095m6.666 0c0 .605-.497 1.096-1.11 1.096-.614 0-1.112-.49-1.112-1.095s.498-1.096 1.111-1.096c.614 0 1.111.49 1.111 1.095m-3.333 3.834c0 .605-.497 1.096-1.111 1.096s-1.111-.49-1.111-1.096c0-.605.497-1.095 1.111-1.095s1.111.49 1.111 1.095M22 4.066v10.28l-5.644-3.616L21.148 3c.468.113.852.52.852 1.066M3.114 3.423C2.534 3.423 2 3.878 2 4.52v9.826l5.644-3.616z"/></svg>
